core/assets/icons/wallet.filled.svg

<svg width="24" height="24" viewBox="0 0 24 24" xmlns="http://www.w3.org/2000/svg"><g id="wallet=filled"><g id="Subtract"><path d="M2 4C2 3.44772 2.44769 3 3 3H21C21.5523 3 22 3.44772 22 4V7H14C11.2386 7 9 9.23859 9 12C9 14.7614 11.2386 17 14 17H22V20C22 20.5523 21.5523 21 21 21H3C2.44769 21 2 20.5523 2 20V4Z"/><path fill-rule="evenodd" clip-rule="evenodd" d="M23 9H14C12.3431 9 11 10.3431 11 12C11 13.6569 12.3431 15 14 15H23V9ZM17 11H14V13H17V11Z"/></g></g></svg>

<svg xmlns="http://www.w3.org/2000/svg" width="24" height="24" fill="none"><g fill="#191C22"><path d="M2 4a1 1 0 0 1 1-1h18a1 1 0 0 1 1 1v3h-8a5 5 0 0 0 0 10h8v3a1 1 0 0 1-1 1H3a1 1 0 0 1-1-1V4Z"/><path fill-rule="evenodd" d="M23 9h-9a3 3 0 1 0 0 6h9V9Zm-6 2h-3v2h3v-2Z" clip-rule="evenodd"/></g></svg>
